X:1
T:St Patrick's Day in the Morning
N:from the melodeon playing of Sally Sloane
Z:Ian Hayden 2017
L:1/8
M:6/8
K:D
|:ded def|aba afd|ede fdA|B>cB B2A|
|ded def|aba afd|ede fdA|B2c d2B:|
[|ABc dcd|cBA BAF|ABc dcd|cBA B3|
|ABc dcd|cBA Bcd|add def|aba afd|
|ede fdA|B>cB B2A|ded def|aba afd|ede fdA|B2c d3|]
